X: 289
P: Longways for as many as will
M: 6/4
L: 1/4
K: Gm
cAF F>GA | B>AG A^F2 | G3- G2 ][ =e | f2f f>ed | cAF F2f |
g2a b>ag | fdd d2=e | f2f f>ed | cAF F2A | G>AG A^F2 | G3- G2 |]

